X:1
T:Title
%%score { ( 1 4 ) | ( 2 3 ) }
L:1/8
M:4/4
K:C
V:1 treble nm="Grand Piano"
V:4 treble 
V:2 bass 
V:3 bass 
V:1
 z4 z2[Q:1/4=100] C>E | G2 [G,B,DFG]2 [CEG]G C>E | G2 [G,B,DFG]2 [G,CEG]2 D>F | %3
 A2 [A,^CEGA]2 [DFA]A D>F | A2 [A,^CEGA]2 [A,DFA]2 [FA]>[FA] | B2 B2 BGAB | c2 d2 e2 [Ge]>[Ge] | %7
 [Gd]3 [Gd] [^Fe][Fd][Fc][FA] | d4[K:bass] z4 | z4 c4 | [FAc]>[FAc] [GB]>[FA] z2 C2 | %11
 G>G A>B c2 [Ee]2 | z2 [^Fd]2 d4 | z4 c4 | [FAf]>[FAc] [FAc]>[FAd] z2 C2 | d>d [Fe]>d c>B A>B | %16
[M:3/4] c6 |] %17
V:2
 z4 z2 C,>E, | G,2 G,,2 z [CE] C,>E, | G,2 G,,2 C,2 D,>F, | A,2 A,,2 z [DF] D,>F, | %4
 A,2 A,,2 D,2 [D,D]>[D,D] | [G,DF]2 [G,DF]2 [G,DF][G,B,F][G,CF][G,DF] | %6
 [A,CE]2 [G,B,G]2 [CG]2[K:bass] [C,C]>[C,C] | [D,B,]3 [D,B,] [D,A,][D,A,][D,D][D,C] | [G,B,F]4 z4 | %9
 [C,C]2 [B,,B,]2 [A,,A,]2 [G,,G,]2 | [F,,F,]2 [F,C]2 [C,,C,]2 G,2 | %11
 [G,B,F]>[G,B,F] [G,CF]>[G,DF] [A,CE]2[K:bass] [C,A,]2 | z4[K:treble] G2 z2 | %13
 [C,C]2 [B,,B,]2 [A,,A,]2 [G,,G,]2 | [F,,F,]2 [F,C]2 [C,,C,]2 G,2 | %15
 [F,A,F]>[F,A,F] [D,A,]>[K:treble][F,A,F] [G,DF]>[G,DF] [G,B,F]>[G,F] |[M:3/4][K:bass] G,2 z2 z2 |] %17
V:3
 x8 | z4 [C,G,]2 z2 | x8 | z4 [D,A,]2 z2 | x8 | x8 | x6[K:bass] x2 | x8 | x8 | x8 | x8 | %11
 x6[K:bass] x2 | [D,B,]2 .[D,A,]2[K:treble] [G,B,]4 | x8 | x8 | x7/2[K:treble] x9/2 | %16
[M:3/4][K:bass] C,->[C,-G,] [C,-A,]>[C,-^G,] [C,=G,]2 |] %17
V:4
 x8 | x8 | x8 | x8 | x8 | x8 | x8 | x8 | z2 z[K:bass] G, A,G,A,B, | %9
 [EGe]>[EGe] [E^Ge]>[EGd] [EA]2 [E_B]2 | z4 [EG]4 | x8 | [Gd]2 z C z2 =F2 | %13
 [EGe]>[EGe] [E^Ge]>[EGd] [EA]2 [E_B]2 | z4 [EGe]4 | x8 |[M:3/4] E>E F>D E2 |] %17

